src/images/skills/heart.svg

<svg width="66" height="71" viewBox="0 0 66 71" fill="none" xmlns="http://www.w3.org/2000/svg">
<path d="M0.704654 10.7125V10.7116C2.39889 10.1084 3.77734 8.72377 4.39383 7.03575C4.39471 7.03575 4.3956 7.03575 4.39648 7.03486C4.44793 6.89205 4.58365 6.79004 4.7442 6.79004C4.91717 6.79004 5.06176 6.90979 5.10256 7.07034C5.10345 7.07034 5.10434 7.07034 5.10611 7.07034C5.72792 8.77611 7.05492 10.1138 8.77399 10.7125C8.77399 10.7125 8.77399 10.7134 8.77399 10.7143C8.91325 10.7693 9.01172 10.9041 9.01172 11.0629C9.01172 11.2208 8.91414 11.3547 8.77665 11.4106L8.77576 11.4115C7.0496 12.0138 5.69954 13.3674 5.09547 15.0829H5.09458C5.04224 15.2248 4.90653 15.326 4.74686 15.326C4.5801 15.326 4.43995 15.2151 4.39294 15.0634C4.39205 15.0634 4.39116 15.0643 4.39116 15.0643C3.77645 13.3585 2.41929 12.0085 0.707313 11.4044C0.567162 11.3512 0.466043 11.2172 0.466043 11.0584C0.466043 10.9006 0.56539 10.7666 0.704654 10.7125Z" fill="#1A1A1A" fill-opacity="0.72"/>
<path d="M11.2599 17.998C10.1821 18.3741 9.33946 19.2186 8.96335 20.2892H8.96247C8.92965 20.3779 8.84538 20.4409 8.74514 20.4409C8.64047 20.4409 8.55354 20.3717 8.52427 20.2768C8.52427 20.2768 8.52338 20.2768 8.5225 20.2777C8.1393 19.2132 7.29218 18.3706 6.2242 17.9936C6.13638 17.9607 6.07429 17.8765 6.07429 17.7771C6.07429 17.6787 6.13638 17.5953 6.22331 17.5616C6.22331 17.5616 6.22331 17.5616 6.22331 17.5607C7.28065 17.1846 8.14019 16.3206 8.52516 15.2668C8.52605 15.2668 8.52605 15.2668 8.52694 15.2668C8.55887 15.1781 8.64402 15.1143 8.74337 15.1143C8.85159 15.1143 8.94118 15.1888 8.9669 15.289C8.96779 15.289 8.96779 15.289 8.96868 15.289C9.3572 16.3534 10.1848 17.1881 11.2581 17.5616V17.5625C11.345 17.5971 11.4062 17.6813 11.4062 17.7798C11.4071 17.8791 11.3459 17.9625 11.2599 17.998Z" fill="#1A1A1A" fill-opacity="0.72"/>
<path d="M57.5956 12.4886C57.5965 12.4886 57.5956 12.4877 57.5956 12.4886C57.4573 12.4319 57.3606 12.2979 57.3606 12.14C57.3606 11.9812 57.459 11.8464 57.5983 11.7914C57.5983 11.7914 57.5983 11.7905 57.5983 11.7896C59.3174 11.1909 60.6444 9.85325 61.2662 8.14749C61.2671 8.14749 61.268 8.14749 61.2697 8.14749C61.3105 7.98694 61.4551 7.86719 61.6281 7.86719C61.7886 7.86719 61.9235 7.9692 61.9758 8.11201C61.9767 8.11201 61.9767 8.11201 61.9785 8.1129C62.595 9.80092 63.9734 11.1856 65.6676 11.7888V11.7896C65.8069 11.8429 65.9062 11.9768 65.9062 12.1347C65.9062 12.2935 65.806 12.4283 65.665 12.4806C63.953 13.0847 62.5958 14.4348 61.9811 16.1405C61.9802 16.1405 61.9794 16.1397 61.9794 16.1397C61.9323 16.2913 61.7931 16.4022 61.6254 16.4022C61.4658 16.4022 61.33 16.3011 61.2777 16.1592H61.2768C60.6728 14.4437 59.3227 13.0909 57.5956 12.4886Z" fill="#1A1A1A" fill-opacity="0.72"/>
<path d="M57.4082 16.3666C57.4339 16.2664 57.5235 16.1919 57.6317 16.1919C57.7319 16.1919 57.8162 16.2558 57.8481 16.3445C57.849 16.3445 57.849 16.3445 57.8499 16.3445C58.2349 17.3974 59.0953 18.2613 60.1518 18.6383V18.6392C60.2387 18.6729 60.3008 18.7563 60.3008 18.8548C60.3008 18.9541 60.2378 19.0375 60.1509 19.0712C59.0829 19.4482 58.2358 20.2909 57.8526 21.3553C57.8526 21.3553 57.8517 21.3553 57.8517 21.3544C57.8224 21.4493 57.7355 21.5185 57.6308 21.5185C57.5306 21.5185 57.4463 21.4555 57.4135 21.3668H57.4126C57.0356 20.2962 56.1929 19.4517 55.1161 19.0756C55.1161 19.0756 55.1161 19.0756 55.1161 19.0748C55.03 19.0402 54.9697 18.9559 54.9697 18.8574C54.9697 18.7581 55.0309 18.6738 55.1178 18.6401V18.6392C56.1912 18.2658 57.0188 17.4302 57.4073 16.3666C57.4073 16.3666 57.4073 16.3666 57.4082 16.3666Z" fill="#1A1A1A" fill-opacity="0.72"/>
<path d="M7.7798 24.2029C8.45749 24.3829 14.3962 26.0905 14.3962 30.35C14.3962 33.1193 16.0975 36.3428 19.2536 39.6603C19.5197 38.0858 20.3091 36.6178 20.9851 35.7237C21.2068 35.43 21.5448 35.2464 21.912 35.2207C22.2801 35.1897 22.6403 35.328 22.9011 35.5871L33.1871 45.7826L43.4713 35.5853C43.7321 35.3263 44.0985 35.1879 44.4604 35.2189C44.8276 35.2447 45.1656 35.4283 45.3873 35.7219C46.0633 36.6169 46.8536 38.0849 47.1188 39.6594C50.2749 36.3419 51.9771 33.1184 51.9771 30.3491C51.9771 26.0896 57.9167 24.3821 58.5944 24.202C59.2667 24.0255 59.9613 24.4166 60.1511 25.0872C60.2141 25.3081 61.6662 30.5514 60.1139 34.5874C58.7523 38.1257 56.98 47.1353 56.9622 47.2258C56.9064 47.5088 56.7573 47.7651 56.5373 47.9514L47.4417 55.6961V58.6508H50.8905C51.5948 58.6508 52.166 59.222 52.166 59.9263V68.8091C52.166 69.5134 51.5948 70.0846 50.8905 70.0846H33.219C33.2084 70.0846 33.1986 70.082 33.1871 70.0811C33.1764 70.0811 33.1667 70.0846 33.1552 70.0846H15.4837C14.7785 70.0846 14.2081 69.5134 14.2081 68.8091V59.9281C14.2081 59.2238 14.7794 58.6526 15.4837 58.6526H18.9334V55.6987L9.83772 47.9532C9.61862 47.766 9.46872 47.5105 9.41283 47.2276C9.39509 47.1371 7.62191 38.1266 6.2612 34.5891C4.70801 30.5531 6.16185 25.3099 6.22395 25.089C6.41377 24.4166 7.10654 24.0246 7.7798 24.2029ZM34.4946 67.5353H49.614V61.2037H34.4946V67.5353ZM34.4946 58.6526H44.8897V55.1098C44.8897 54.7363 45.0538 54.3806 45.3386 54.1385L54.5451 46.2989C54.9265 44.3988 56.4549 36.993 57.7322 33.6728C58.5642 31.5085 58.2724 28.7294 57.9841 27.1132C56.4841 27.7359 54.5282 28.8811 54.5282 30.3509C54.5282 33.4706 52.9395 38.501 45.3705 44.7528C45.2206 44.8769 45.0494 44.9568 44.872 45.002L40.9806 48.5821C40.4625 49.0593 39.6553 49.0256 39.1781 48.5076C38.7018 47.9895 38.7346 47.1823 39.2535 46.7051L43.9734 42.3631C45.0964 41.3173 44.6458 39.686 44.1065 38.5506L34.4946 48.08V58.6526ZM16.7592 61.2037V67.5353H31.8796V61.2037H16.7592ZM8.642 33.6719C9.91933 36.993 11.4477 44.3979 11.8291 46.298L21.0365 54.1376C21.3212 54.3797 21.4853 54.7345 21.4853 55.1089V58.6517H31.8796V48.08L22.2677 38.5489C21.7275 39.6843 21.276 41.3137 22.3963 42.3569L27.1207 46.7042C27.6396 47.1806 27.6724 47.9887 27.1961 48.5067C26.7197 49.0247 25.9116 49.0593 25.3936 48.5812L21.5031 45.0011C21.3257 44.9559 21.1545 44.8761 21.0037 44.751C13.4355 38.4992 11.846 33.4688 11.846 30.3491C11.846 28.8802 9.88917 27.7333 8.39097 27.1115C8.1018 28.7285 7.80907 31.5076 8.642 33.6719Z" fill="#1A1A1A" fill-opacity="0.72"/>
<path d="M49.2385 19.0613L49.2048 19.0888C48.7498 19.5198 48.269 19.9057 47.774 20.2383C38.666 27.5697 34.8349 30.7949 34.2565 31.3919C34.0525 31.6864 33.7305 31.8851 33.3659 31.9312C33.3127 31.9383 33.2604 31.941 33.2081 31.941C32.8541 31.941 32.5153 31.7937 32.274 31.5338C32.2439 31.5019 32.2155 31.47 32.1889 31.4354C31.5954 30.7861 26.3282 26.4343 18.7219 20.3111C15.5898 18.2665 13.7226 14.8257 13.7226 11.0939C13.7226 5.02307 18.6616 0.0849609 24.7316 0.0849609C28.0207 0.0849609 31.1164 1.57074 33.1894 4.05887C35.2624 1.57163 38.3582 0.0849609 41.6473 0.0849609C47.7181 0.0849609 52.6562 5.02396 52.6562 11.0939C52.6562 14.038 51.5093 16.7984 49.4239 18.8794C49.368 18.9459 49.3059 19.0071 49.2385 19.0613ZM41.6455 2.63695C38.6172 2.63695 35.8009 4.27796 34.2964 6.92044C34.0694 7.31871 33.6462 7.56531 33.1877 7.56531C32.7291 7.56531 32.3059 7.3196 32.0789 6.92044C30.5736 4.27796 27.7581 2.63695 24.7298 2.63695C20.0658 2.63695 16.2719 6.43079 16.2719 11.0948C16.2719 13.9786 17.7258 16.6361 20.1598 18.2044C20.1979 18.2283 20.2343 18.2549 20.2689 18.2824C27.0192 23.7164 31.3497 27.2761 33.201 28.9109C35.0602 27.269 39.4191 23.6862 46.2173 18.215C46.2474 18.1911 46.2794 18.168 46.3122 18.1458C46.7149 17.878 47.1087 17.5622 47.4831 17.2038C47.5035 17.1843 47.523 17.1666 47.5443 17.1488C49.1942 15.5406 50.1025 13.3905 50.1025 11.0948C50.1025 6.43079 46.3086 2.63695 41.6455 2.63695Z" fill="#1A1A1A" fill-opacity="0.72"/>
</svg>

<?xml version="1.0" encoding="UTF-8"?>
<svg viewBox="0 0 66 71" xmlns="http://www.w3.org/2000/svg">
<path d="m0.70526 10.713v-9e-4c1.6942-0.6032 3.0727-1.9879 3.6892-3.6759 8.8e-4 0 0.00177-1e-5 0.00265-8.9e-4 0.05145-0.14281 0.18717-0.24482 0.34772-0.24482 0.17297 0 0.31756 0.11975 0.35836 0.2803h0.00355c0.62181 1.7058 1.9488 3.0434 3.6679 3.6422v0.0017c0.13926 0.055 0.23773 0.1899 0.23773 0.3486 0 0.1579-0.09758 0.2919-0.23507 0.3478l-8.8e-4 8e-4c-1.7262 0.6023-3.0762 1.956-3.6803 3.6715h-8.9e-4c-0.05234 0.1419-0.18805 0.243-0.34772 0.243-0.16676 0-0.30691-0.1109-0.35392-0.2625-8.9e-4 0-0.00178 9e-4 -0.00178 9e-4 -0.61471-1.7058-1.9719-3.0559-3.6838-3.6599-0.14015-0.0533-0.24127-0.1872-0.24127-0.346 0-0.1579 0.099347-0.2918 0.23861-0.3459z" fill="#1A1A1A" fill-opacity=".72"/>
<path d="m11.258 17.998c-1.0778 0.3761-1.9205 1.2206-2.2966 2.2912h-8.8e-4c-0.03282 0.0887-0.11709 0.1517-0.21733 0.1517-0.10467 0-0.1916-0.0692-0.22087-0.1641 0 0-8.9e-4 0-0.00177 9e-4 -0.3832-1.0645-1.2303-1.9071-2.2983-2.2841-0.08782-0.0329-0.14991-0.1171-0.14991-0.2165 0-0.0984 0.06209-0.1818 0.14902-0.2155v-9e-4c1.0573-0.3761 1.9169-1.2401 2.3018-2.2939h0.00178c0.03193-0.0887 0.11708-0.1525 0.21643-0.1525 0.10822 0 0.19781 0.0745 0.22353 0.1747h0.00178c0.38852 1.0644 1.2161 1.8991 2.2894 2.2726v9e-4c0.0869 0.0346 0.1481 0.1188 0.1481 0.2173 9e-4 0.0993-0.0603 0.1827-0.1463 0.2182z" fill="#1A1A1A" fill-opacity=".72"/>
<path d="m57.595 12.488c9e-4 0 0-8e-4 0 0-0.1384-0.0567-0.2351-0.1907-0.2351-0.3486 0-0.1587 0.0985-0.2936 0.2378-0.3486v-0.0017c1.719-0.5988 3.046-1.9364 3.6678-3.6422h0.0036c0.0408-0.16055 0.1854-0.2803 0.3584-0.2803 0.1605 0 0.2953 0.10201 0.3477 0.24482 9e-4 0 9e-4 0 0.0026 8.8e-4 0.6165 1.688 1.995 3.0727 3.6892 3.6759v9e-4c0.1393 0.0532 0.2386 0.1871 0.2386 0.345 0 0.1588-0.1002 0.2936-0.2413 0.346-1.7119 0.604-3.0691 1.9541-3.6838 3.6599-9e-4 0-0.0018-9e-4 -0.0018-9e-4 -0.047 0.1516-0.1863 0.2625-0.3539 0.2625-0.1597 0-0.2954-0.1011-0.3477-0.243h-9e-4c-0.6041-1.7155-1.9541-3.0683-3.6812-3.6706z" fill="#1A1A1A" fill-opacity=".72"/>
<path d="m57.406 16.367c0.0257-0.1002 0.1153-0.1747 0.2235-0.1747 0.1003 0 0.1845 0.0639 0.2165 0.1526h0.0017c0.385 1.0529 1.2454 1.9168 2.3019 2.2938v9e-4c0.0869 0.0337 0.149 0.1171 0.149 0.2156 0 0.0993-0.063 0.1827-0.1499 0.2164-1.068 0.377-1.9151 1.2197-2.2983 2.2841 0 0-9e-4 0-9e-4 -9e-4 -0.0293 0.0949-0.1162 0.1641-0.2208 0.1641-0.1003 0-0.1846-0.0629-0.2174-0.1516h-9e-4c-0.377-1.0707-1.2196-1.9152-2.2965-2.2913v-8e-4c-0.086-0.0346-0.1463-0.1189-0.1463-0.2174 0-0.0993 0.0612-0.1836 0.1481-0.2173v-9e-4c1.0733-0.3734 1.9009-1.209 2.2894-2.2726h9e-4z" fill="#1A1A1A" fill-opacity=".72"/>
<path d="m7.7786 24.203c0.67769 0.18 6.6164 1.8876 6.6164 6.1471 0 2.7693 1.7013 5.9928 4.8574 9.3103 0.2661-1.5745 1.0555-3.0425 1.7314-3.9366 0.2218-0.2937 0.5598-0.4773 0.927-0.503 0.3681-0.031 0.7282 0.1073 0.989 0.3664l10.286 10.196 10.284-10.197c0.2608-0.259 0.6272-0.3974 0.9891-0.3664 0.3672 0.0258 0.7052 0.2094 0.9269 0.503 0.6759 0.895 1.4663 2.363 1.7315 3.9375 3.1561-3.3175 4.8583-6.541 4.8583-9.3103 0-4.2595 5.9396-5.967 6.6173-6.1471 0.6723-0.1765 1.3669 0.2146 1.5567 0.8852 0.063 0.2209 1.515 5.4642-0.0373 9.5002-1.3616 3.5383-3.1338 12.548-3.1516 12.638-0.0559 0.283-0.2049 0.5393-0.4249 0.7256l-9.0956 7.7447v2.9547h3.4488c0.7043 0 1.2755 0.5712 1.2755 1.2755v8.8828c0 0.7043-0.5712 1.2755-1.2755 1.2755h-17.672c-0.0106 0-0.0204-0.0026-0.0319-0.0035-0.0107 0-0.0204 0.0035-0.032 0.0035h-17.671c-0.7052 0-1.2756-0.5712-1.2756-1.2755v-8.881c0-0.7043 0.5713-1.2755 1.2756-1.2755h3.4496v-2.9539l-9.0956-7.7455c-0.2191-0.1872-0.36901-0.4427-0.42489-0.7256-0.01774-0.0905-1.7909-9.101-3.1516-12.638-1.5532-4.036-0.09935-9.2792-0.03725-9.5001 0.18982-0.6724 0.88259-1.0644 1.5558-0.8861zm26.715 43.332h15.119v-6.3316h-15.119v6.3316zm0-8.8827h10.395v-3.5428c0-0.3735 0.1641-0.7292 0.4488-0.9713l9.2065-7.8396c0.3815-1.9001 1.9098-9.3059 3.1872-12.626 0.832-2.1643 0.5402-4.9434 0.2519-6.5596-1.5 0.6227-3.4559 1.7679-3.4559 3.2377 0 3.1197-1.5887 8.1501-9.1577 14.402-0.1499 0.1241-0.3211 0.204-0.4985 0.2492l-3.8915 3.5801c-0.518 0.4772-1.3252 0.4435-1.8024-0.0745-0.4763-0.5181-0.4435-1.3253 0.0754-1.8025l4.7199-4.342c1.123-1.0458 0.6724-2.6771 0.133-3.8125l-9.6118 9.5294v10.573zm-17.735 2.5511v6.3316h15.12v-6.3316h-15.12zm-8.1172-27.532c1.2773 3.3211 2.8057 10.726 3.1871 12.626l9.2074 7.8396c0.2847 0.2421 0.4488 0.5969 0.4488 0.9713v3.5428h10.394v-10.572l-9.6119-9.5311c-0.5402 1.1354-0.9917 2.7648 0.1286 3.808l4.7243 4.3473c0.519 0.4764 0.5518 1.2845 0.0754 1.8025-0.4763 0.518-1.2844 0.5526-1.8024 0.0745l-3.8905-3.5801c-0.1774-0.0452-0.3486-0.125-0.4994-0.2501-7.5682-6.2518-9.1578-11.282-9.1578-14.402 0-1.4689-1.9568-2.6158-3.455-3.2376-0.28918 1.617-0.5819 4.3961 0.25103 6.5604z" fill="#1A1A1A" fill-opacity=".72"/>
<path d="m49.239 19.061-0.0337 0.0275c-0.4551 0.4311-0.9358 0.8169-1.4308 1.1496-9.1081 7.3313-12.939 10.556-13.518 11.154-0.204 0.2945-0.526 0.4932-0.8906 0.5393-0.0532 0.0071-0.1055 0.0098-0.1579 0.0098-0.3539 0-0.6927-0.1473-0.934-0.4072-0.0302-0.0319-0.0586-0.0638-0.0852-0.0984-0.5934-0.6493-5.8606-5.0011-13.467-11.124-3.1321-2.0446-4.9993-5.4854-4.9993-9.2172 0-6.0708 4.939-11.009 11.009-11.009 3.2892 0 6.3849 1.4858 8.4579 3.9739 2.073-2.4872 5.1687-3.9739 8.4579-3.9739 6.0708 0 11.009 4.939 11.009 11.009 0 2.9441-1.1469 5.7045-3.2323 7.7855-0.0559 0.0665-0.118 0.1278-0.1854 0.1819zm-7.593-16.424c-3.0284 0-5.8447 1.641-7.3491 4.2835-0.2271 0.39828-0.6502 0.64488-1.1088 0.64488s-0.8817-0.24571-1.1088-0.64488c-1.5053-2.6425-4.3207-4.2835-7.349-4.2835-4.6641 0-8.4579 3.7938-8.4579 8.4578 0 2.8838 1.4539 5.5413 3.8879 7.1096 0.0381 0.0239 0.0745 0.0505 0.1091 0.078 6.7503 5.434 11.081 8.9937 12.932 10.628 1.8592-1.6419 6.2181-5.2247 13.016-10.696 0.0302-0.0239 0.0621-0.047 0.095-0.0692 0.4027-0.2678 0.7965-0.5836 1.1708-0.942 0.0204-0.0195 0.04-0.0372 0.0612-0.055 1.6499-1.6082 2.5582-3.7583 2.5582-6.054 0-4.664-3.7938-8.4578-8.4569-8.4578z" fill="#1A1A1A" fill-opacity=".72"/>
</svg>
